!! 00000] TT[00
!! NN
!!!OTL: Gu li pa
!!!ARE: Xinjiang, Kezilesu (Nord)
!! Ethnic Group: Ker kezi (Krigisen?)
!! IV, 518
!!!SCT: C0434
!!!YEM: Copyright 1995, estate of Helmut Schaffrath.
**kern
*ICvox
*Ivox
!! Mixed meters:  2/4; 3/4; 3/8
*M2/4
*k[f#]
*G:
{8g
16g
16a
8b
16b
16dd
=1
8cc
8b
[4a
=2
2a_
=3
4.a]
8dd}
=4
{8g
16g
16a
8b
16b
16dd
=5
8cc
8b
8a
8r}
=6
{8g
16g
16a
8b
16b
16dd
=7
8cc
8b
4a}
=8
{16b
16cc
4.dd
=9
8b
8g
16a
16b
8a
=10
8g
8e
[4d
=11
2d]}
=12
{8g
16g
16a
8b
16b
16dd
=13
8cc
8b
[4a
=14
*M3/4
2a]
4dd}
=15
*M2/4
{8g
16g
16a
8b
16b
16dd
=16
8cc
8b
8a
8r}
=17
{8g
16g
16a
8b
16b
16dd
=18
8cc
8b
4a}
=19
*M3/8
{16b
16cc
4dd
=20
*M2/4
8b
16b
16g
8a
16b
16a
=21
8g
4e
[8d
=22
2d_
=23
2d]}
=24
{8g
16g
16a
8b
16b
16dd
=25
8cc
8b
[4a
=26
2a_
=27
8a]
4.dd}
=28
{8g
16g
16a
8b
16b
16dd
=29
8cc
8b
8a
8r}
=30
{8g
16g
16a
8b
16b
16dd
=31
8cc
8b
8a
8r}
=32
*M3/8
{16b
16cc
4dd
=33
*M2/4
8b
8g
8a
16b
16a
=34
8g
4e
[8a
=35
16a]
16r
[4.d
=36
2d]}
==
!!!AGN: Aiqing gequ
!! diese nat. Minderheit gibt es auch in der Sowjetunion.
!!    Einige Verzierungen, Glissandi. Vor- und Zwischenspiele weggelassen.
!!!ONB: ESAC (Essen Associative Code) Database: CHINA
!!!AMT: irregular
!!!AIN: vox
!!!EED: Helmut Schaffrath
!!!EEV: 1.0
*-
!!!ONB: Tied note syntax fixed by Craig Sapp, 2004/05/03/
